!!! OTL: Berkowitz284
!!! Chapter: 1
!!! Section: II
!!! Page: 68
!!! Mode: 
!!! Encoder: DJB
**kern
*staff1
*I"Piano
=1-
*clefG2
*k[f#]
*D:
*M2/4
4dd\
8cc\L
8b\J
=2
4a/
4b\
=3
4cc\
4a/
=4
4dd\
8cc\L
8b\J
=5
8.a/L
16g/Jk
8a/L
8b/J
=6
4cc\
4a/
=7
8.f#/L
16g/Jk
8f#/L
8e/J
=8
4d/
4e/
=9
4f#/
4d/
=10
16f#/LL
16e/
16f#/
16g/JJ
8f#/L
8e/J
=11
4d/
4e/
=12
!!linebreak:original
4f#/
4d/
==
*-
